!!!COM: Robert Schumann
!!!CNT: Deutsch
!!!TXO: Deutsch
!!!OTL: Der arme Peter II
!!!LYR: Heine
!!!OPR: Ausgewa2hlte Lieder
!!!OPS: Op. 53
!!!ONM: No. 3
!!!ENC: Ben Fuhrman
!!!YOR: Schumann Lieder - Max Friedlaender, ed.,
!!!YOR: New York: C. F. Peters, Vol. 1
!!!ODT: 1840/
!!NB: Vocal melody and text only encoded.
!!NB: First instance of melodic material only encoded.
**kern	**silbe
*clefG2	*
*k[b-]	*
*M2/2	*
!!created: 5/26/06 12:00
!!proofed and posted: 5/26/06 12:00
!!edit time: 20 minutes
=2	=2
2r	.
4r	.
{(8f	{"In
8g)	|
=3	=3
(8a	mei-
8b-)	|
(8a	-ner
8g#)	|
4a	Brust
(8f	da
8gn)	|
=4	=4
(8a	sitzt
8b-)	|
(8a	ein
8g#)	|
4a	Weh,
4a	das
=5	=5
4.dd	will
8dd	die
4.cc	Brust
8f	zer-
=6	=6
4b-	-spre-
4a}	-gen;}
4r	.
{(8f	{und
8g)	|
=7	=7
(8a	wo
8b-)	|
(8a	ich
8g#)	|
4a	steh',
(8f	und
8gn)	|
=8	=8
(8a	wo
8b-)	|
(8a	ich
8g#)	|
2a	geh',
=9	=9
4ff	will's
8ff	mich
8ff	von
4ee	hin-
4a	-nen
=10	=10
4dd	dra2n-
4cc}	-gen.}
4r	.
{4cc	{Es
=11	=11
4.cc	treibt
8b-	mich
4a	nach
4g	der
=12	=12
4.f	Lieb-
8g	-sten
4a	Na2h',
4b-	als
=13	=13
4.cc	ko2nnt's
8b-	die
4cc	Gre-
4dd	-te
=14	=14
2cc	hei-
4b-	-len;
4a	doch
=15	=15
4.a	wenn
8g	ich
4f#	der
4e	ins
=16	=16
4.d	Au-
8e	-ge
4f#	seh',
4g	muss
=17	=17
4.a	ich
8g	von
4a	hin-
4b-	-nen
=18	=18
2a	ei-
4g	-len.
4b-	Ich
=19	=19
2.b-	steig'
4g	hin-
=20	=20
4.e	-auf
8e	des
(6d	Ber-
6c#)	|
6d	-ges
=21	=21
1c#}	Ho2h',}
=22	=22
2r	.
{2B	{dort
=23	=23
2.A	ist
4c#	man
=24	=24
2e	doch
2g	al-
=25	=25
2g	lei-
2f}	-ne;}
=26	=26
2r	.
{2ee-	{und
=27	=27
2.ee-	wenn
4cc	ich
=28	=28
4a	still
4a	dort
4g	o-
4g	-ben
=29	=29
1f#}	steh',}
=30	=30
2r	.
{2e-	{dann
=31	=31
2.d	steh'
4f#	ich
=32	=32
2a	still
2cc	und
=33	=33
2cc	wei-
4b-}	-ne."}
4r	.
==	==
*-	*-
